static/fa/svgs/solid/business-time.svg

<svg xmlns="http://www.w3.org/2000/svg" viewBox="0 0 640 512"><!--! Font Awesome Free 6.1.1 by @fontawesome - https://fontawesome.com License - https://fontawesome.com/license/free (Icons: CC BY 4.0, Fonts: SIL OFL 1.1, Code: MIT License) Copyright 2022 Fonticons, Inc.--><path d="M496 224c-79.6 0-144 64.4-144 144s64.38 144 144 144 144-64.38 144-144-64.4-144-144-144zm48 160h-54.25c-5.35 0-9.75-4.4-9.75-9.7V304c0-8.8 7.2-16 16-16s16 7.2 16 16v48h32c8.838 0 16 7.162 16 16 0 8.8-7.2 16-16 16zm-223.9-32H208c-8.8 0-16-7.2-16-16v-48H0v144c0 25.6 22.41 48 48 48h312.2c-25.1-30.4-40.2-69.5-40.2-112 0-5.4.5-10.7.1-16zM496 192c5.402 0 10.72.33 16 .807V144c0-25.6-22.4-48-48-48h-80V48c0-25.59-22.4-48-48-48H176c-25.6 0-48 22.41-48 48v48H48c-25.59 0-48 22.4-48 48v112h360.2c32.3-39.1 81.1-64 135.8-64zM336 96H176V48h160v48z"/></svg>

<svg xmlns="http://www.w3.org/2000/svg" viewBox="0 0 640 512"><!--! Font Awesome Free 6.1.1 by @fontawesome - https://fontawesome.com License - https://fontawesome.com/license/free (Icons: CC BY 4.0, Fonts: SIL OFL 1.1, Code: MIT License) Copyright 2022 Fonticons, Inc. --><path d="M496 224C416.4 224 352 288.4 352 368s64.38 144 144 144s144-64.38 144-144S575.6 224 496 224zM544 384h-54.25C484.4 384 480 379.6 480 374.3V304C480 295.2 487.2 288 496 288C504.8 288 512 295.2 512 304V352h32c8.838 0 16 7.162 16 16C560 376.8 552.8 384 544 384zM320.1 352H208C199.2 352 192 344.8 192 336V288H0v144C0 457.6 22.41 480 48 480h312.2C335.1 449.6 320 410.5 320 368C320 362.6 320.5 357.3 320.1 352zM496 192c5.402 0 10.72 .3301 16 .8066V144C512 118.4 489.6 96 464 96H384V48C384 22.41 361.6 0 336 0h-160C150.4 0 128 22.41 128 48V96H48C22.41 96 0 118.4 0 144V256h360.2C392.5 216.9 441.3 192 496 192zM336 96h-160V48h160V96z"/></svg>
